X: 39851
T: This Gloom On My Soul
R: waltz
M: 3/4
K: Dmajor
|:d>c|B2 A2 F2|E3 F F>E|D3 B, B,<A,|B,4 E/F/A|B2 F2 A2|E3 F E/D/C|D6-|D4:|
E/F/A|B2 A2 F2|A4 d>c|B2 A2 F2|A4 B>d|e2 B2 B<d|B<A- A2 F2|E6-|E4 d>c|
B2 A2 F2|E4 F>E|D3 B, B,<A,|B,4 E/F/A|B2 F2 A2|E3 F E/D/C|D6-|D4||

